X:1
T:Alice B.
M:4/4
L:1/8
K:C
 G/2G/2 AE|
M:5/4
 G4- GC DC CA,|
M:4/4
 C6 z G,/2 G,/2| CC EE GG BB| B/2 G3/2 A3/2 ^A/2 GG =AE|
M:5/4
 G4- GC DC =B,C|
M:4/4
 c6 cc| c3/2 G/2 AE ED F3/2 E/2| E2- C2- C||
